X:1
T:Blue Night
C:robert j beirer
Z:All Rights Reserved
L:1/8
Q:1/4=90
M:4/4
K:F
V:1 treble nm="Vocals"
%%MIDI program 0
V:1
 CD |"F" F6- (3FCD |"Bb" F6- (3FCD |"F" F6 (3B,CB, |"F" A,4 z2 CD |"Bb" F6- (3FFG | %6
"Bdim" _A6- (3AAB |"F/C" c6"F/Bb" d2 |"Am7" c4"D7" z2 cd |"Gm7" (3cdB- B4- (3BAB | %10
"C7" (3ABG- G4- (3GFE |"F" F4 z4 |"Gm7" z4"Gb7" z4 |] %13

